X:1
T:My Love's an Arbutus
T:Old Irish Melody arr. C. V. Stanford (1852 - 1924)
T:Words by A. P. Graves
T:My Love's an Arbutus
T:© 2000 by the Choral Public Domain Library (http://www.cpdl.org) Edition may be freely distributed, duplicated, performed or recorded.
C:Old Irish Melody
C:arr. C. V. Stanford
C:(1852 - 1924)
Z:Words by A. P. Graves
%%score [ 1 2 3 4 ]
L:1/8
Q:1/4=100
M:3/4
K:Bb
V:1 treble nm="Soprano" snm="S."
V:2 treble nm="Alto" snm="A."
V:3 treble-8 transpose=-12 nm="Tenor" snm="T."
V:4 bass nm="Bass" snm="B."
V:1
!mf!"^Allegretto" (Bc) | (de) f2 c2 | (Bc) d2 (cd) | (BG) F2 F2 | F4 (BG) | F2 F2 (GB) | %6
w: My *|love's * an ar-|bu- * tus By the|bor- * ders of|Lene, So *|slen- der and *|
w: But tho'|rud- * dy the|ber- * ry And *|snow- * y the|flow'r That *|bright- en to- *|
 c2 c2 (de) | f2 e2 d2 | c4 (BG) | F2 F2 (GB) | c2 c2 (de) | %11
w: shape- ly in her|gir- dle of|green, And I|mea- sure the *|plea- sure Of her|
w: ge- ther The *|ar- bu- tus|bow'r, Per- *|fum- ing and *|bloom- ing Through *|
"^rall.""^rall.""^rall.""^rall." (fd) (gf) (ed) | c4"^A tempo" (Bc | de) f2 c2 | (Bc) d2 (cd) | %15
w: eyes' * sapph- * ire *|sheen By the|blue * skies that|spar- * kle Thro' the|
w: sun- * shine * and *|show'r, Give *|me * her bright|lips * And her *|
 (BG) F2 F2 | !fermata!F4 :| z2 | z6 | z6 | z6 | z2 z2 (BG) | F2 F2 (GB) | %23
w: soft * branch- ing|screen.|||||And *|Time's jea- lous *|
w: laugh's * pear- ly|dow'r.|||||||
 c2 c2"^rall.""^rall.""^rall.""^rall." de | f2 e3 d | !fermata!c4!f!"^A tempo" BG | F2 F2 (GB) | %27
w: fin- gers dim your|young charms, Ma-|chree. But un-|rang- ing un- *|
w: ||||
 c2 c2 (de) | (fd)"^rall.""^rall.""^rall.""^rall." (gf e)d | c4 Bc | (de) f2 c2 | (Bc) d2 (cd) | %32
w: chang- ing, You'll *|still * cling _ _ to|me Like the|ev- * er- green|leaf * to the *|
w: |||||
 (BG) F2 F2 | !fermata!F6 |] %34
w: ar- * bu- tus|tree.|
w: ||
V:2
!mf! (BB) | (Bc) d2 c2 | (GA) B2 (FF) | (FG) C2 E2 | (E2 D2) E2 | C2 D2 (DG) | G2 A2 (Bc) | %7
w: My *|love's * an ar-|bu- * tus By the|bor- * ders of|Lene, * So|slen- der and *|shape- ly in her|
w: But tho'|rud- * dy the|ber- * ry And *|snow- * y the|flow'r * That|bright- en to- *|ge- ther The *|
 d2 c2 B2 | A4 (FE) | E2 D2 (DG) | B2 A2 (FF) | F2 (EF) G2 | (B2 A2)"^A tempo" (GF) | F2 F2 (F^F) | %14
w: gir- dle of|green, And I|mea- sure the *|plea- sure Of her|eyes' sapph- * ire|sheen * By the|blue skies that *|
w: ar- bu- tus|bow'r, Per- *|fum- ing and *|bloom- ing Through *|sun- shine * and|show'r, * Give *|me her bright *|
 G2 G2 (AA) | (GD) D2 E2 | (E2 !fermata!D2) :| z2 | z6 | z6 | z6 | z2 z2 (DE) | E2 D2 _D2 | %23
w: spar- kle Thro' the|soft * branch- ing|screen. *|||||And *|Time's jea- lous|
w: lips And her *|laugh's * pear- ly|dow'r. *|||||||
 C2 F2 FG | _A2 G3 G | !fermata!C4!f!"^A tempo" FE | D2 C2 (EF) | E2 E2 B2 | B2 =B3 B | %29
w: fin- gers dim your|young charms, Ma-|chree. But un-|rang- ing un- *|chang- ing, You'll|still cling to|
w: ||||||
 (c2 G2) GA | (Bc) d2 F2 | (GA) B2 F2 | (FE) E2 E2 | (E2 !fermata!D4) |] %34
w: me _ Like the|ev- * er- green|leaf * to the|ar- * bu- tus|tree. _|
w: |||||
V:3
!mf! (de) | f3 d f2 | (dc) B2 (ee) | d2 B2 A2 | B4 G2 | A2 B2 (Bd) | e2 e2 (dc) | B2 f2 f2 | %8
w: My *|love's an ar-|bu- * tus By the|bor- ders of|Lene, So|slen- der and *|shape- ly in her|gir- dle of|
w: But tho'|rud- dy the|ber- * ry And *|snow- y the|flow'r That|bright- en to- *|ge- ther The *|ar- bu- tus|
 f4 (BB) | B2 B2 (Bd) | f2 f2 (Bc) | (dB) (GB) e2 | e4"^A tempo" (ee | d2 d2 e2 | dc) B2 (ee) | %15
w: green, And I|mea- sure the *|plea- sure Of her|eyes' * sapph- * ire|sheen By the|blue skies that|spar- * kle Thro' the|
w: bow'r, Per- *|fum- ing and *|bloom- ing Through *|sun- * shine * and|show'r, Give *|me her bright|lips * And her *|
 (dB) A2 A2 | (c2 !fermata!B2) :| (Bc) | (de) f2 c2 | (Bc) d2 cd | BG F2 F2 | F4 F2 | c2 B2 B2 | %23
w: soft * branch- ing|screen. *|A- *|las, * fruit and|bloss- * om Shall lie|dead up- on the|lea, And|Time's jea- lous|
w: laugh's * pear- ly|dow'r. *|||||||
 A2 A2 =Bc | d2 c3 B | !fermata!A4!f!"^A tempo" BB | B2 A2 B2 | B2 A2 (fe) | (df) (ed g)f | e4 ee | %30
w: fin- gers dim your|young charms, Ma-|chree. But un-|rang- ing un-|chang- ing, You'll *|still * cling _ _ to|me Like the|
w: |||||||
 f3 f f2 | (dc) B2 e2 | (dB) (AB) c2 | (c2 !fermata!B4) |] %34
w: ev- er- green|leaf * to the|ar- * bu- * tus|tree. _|
w: ||||
V:4
!mf! (B,B,) | B,3 B, A,2 | (B,A,) G,2 (A,A,) | B,3 F, F,2 | B,,4 B,,2 | B,,6- | %6
w: My *|love's an ar-|bu- * tus By the|bor- ders of|Lene, So|slen-|
w: But tho'|rud- dy the|ber- * ry And *|snow- y the|flow'r That|bright-|
 B,,2 B,,2 (B,,B,,) | (B,,3 C,) (D,E,) | F,4 (D,E,) | B,3 A, G,2 | F,3 F, (F,E,) | D,2 E,2 C,2 | %12
w: * der in her|gir- dle of *|green, And I|mea- sure the|plea- sure Of her|eyes' sapph- ire|
w: * en The *|ar- * bu- tus|bow'r, Per- *|fum- ing and|bloom- ing Through *|sun- shine and|
"^Engraved by Jim Cooke" F,4"^A tempo" (G,A, | B,2 A,2 A,2 | G,2 G,2 G,^F,) | G,2 A,2 F,2 | %16
w: sheen By the|blue skies that|spar- kle Thro' the|soft branch- ing|
w: show'r, Give *|me her bright|lips And her *|laugh's pear- ly|
 !fermata!B,,4 :| z2 | z6 | z6 | z2 F,,2 F,,2 | F,,6- | F,,6- | F,,F,, E,2 D,C, | =B,,2 C,3 E, | %25
w: screen.||||Shall lie|dead|_|* And Time dim your|young charms, Ma-|
w: dow'r.|||||||||
 !fermata!F,4!f!"^A tempo" D,E, | F,2 F,2 (E,D,) | C,2 C,2 B,,2 | _A,2 G,3 G, | C4 DC | %30
w: chree. But un-|rang- ing un- *|chang- ing, You'll|still cling to|me Like the|
w: |||||
 B,3 B, A,2 | G,2 G,2 A,2 | (B,E,) F,2 F,2 | !fermata!B,,6 |] %34
w: ev- er- green|leaf to the|ar- * bu- tus|tree.|
w: ||||

